static/assets/template/assets/img/icons/essential/detailed/Fit_2.svg

<svg height="149" viewBox="0 0 143 149" width="143" xmlns="http://www.w3.org/2000/svg"><g fill="none" fill-rule="evenodd" transform="translate(1 1)"><path d="m121 94.8c-3.2 13.1-10.1 28.2-19.3 49.3l-.4 2.3-53.3-1-1.9-.2c-11-22.2-17.6-38.2-20.5-53-2-10.5-2.1-20.4-.5-31.4 0-.1 0-.3.1-.4 3.9-26 12.6-30.5 12.7-60 70.9 1.4 66.9.9 67.8.9-.7 2.2-3.3 16-.9 27h-.2l.3.1c1.9 9 7 15.8 11.6 25.4 7 14.9 8 26.7 4.5 41z" fill-rule="nonzero"/><path d="m103.5 143.8c-.1.2-.1.3-.1.5-.2 1.2-1.2 2-2.4 2-7.2-.2-13.3-.3-18.4-.4-11.7-.2-18.6-.4-22.8-.5-4.6-.1-8.7-2.9-10.6-7.1-14.9-33.7-19.6-52.9-16.2-77.6 2.4-17.8 6.9-25.6 9.6-38 2.8-13 14.5-22.2 27.8-21.9 21.4.4 30.1.5 33.8.5 1.4 0 2.4 1.1 2.4 2.5v.3c-.9 5.1-2 15.5-.3 24.2h-.3l.2.1c1.8 9 6.4 15.8 10.6 25.4 12.7 28.3 4.4 46.1-13.3 90z" fill-rule="nonzero"/><path d="m103.5 143.8c-.1.2-.1.3-.1.5-.2 1.2-1.2 2-2.4 2-.1 0-.1 0-.2 0-8.5-.2-13.8-9.3-9.8-16.8 10.4-19.2 23.3-45.7 14.1-78.1-5.9-20.7-10.3-37.2 1.3-47.5h.1v.3c-.9 5.1-2 15.5-.3 24.2h-.2l.2.1c1.8 9 6.4 15.8 10.6 25.4 12.7 28.2 4.4 46-13.3 89.9z" fill="#bad8ff" fill-rule="nonzero"/><path d="m122.8 83v.6c-.3 3.6-.9 7.3-1.8 11.1l-1.3-1.2c-3.6-3.4-7.9-5.5-12.5-6.5-11.9-2.7-25.9 1.4-34.1 7.4l-1.9 1.4-1.5 4.5-2.5-1.6c-17-10.8-32.5-17-41.4-6.8l-.1.1c-2-10.5-2.1-20.4-.5-31.4 0-.1 0-.3.1-.4l.9.4c16.4 9 25.7 7.7 42-.9 12.2-6.5 26.4-10.7 36.6-10.1 3.5.2 6.5.9 8.8 2.4l2.9 1.7c3.7 7.6 5.7 14.4 6.4 21.2.1.5.1 1.1.1 1.6 0 2.3 0 4.4-.2 6.5z" fill-rule="nonzero"/><path d="m122.8 83v.6c-.3 3.6-.9 7.3-1.8 11.1l-1.3-1.2c-3.6-3.4-7.9-5.5-12.5-6.5 1.8-10.9 1.6-22.8-2-35.7-.2-.5-.3-1.1-.4-1.6 3.5.2 6.5.9 8.8 2.4l2.9 1.7c3.7 7.6 5.7 14.4 6.4 21.2.1.5.1 1.1.1 1.6 0 2.2 0 4.3-.2 6.4z" fill-rule="nonzero"/><g stroke-linecap="round" stroke-linejoin="round" stroke-width="3"><path d="m37.6 9.7c-1.5 20.2-9.2 28.6-12.5 51.1-3.9 26.3 2.1 46.3 20.9 84.4"/><path d="m37.9.7v1.6"/><path d="m63.1 145.3c1.3-26 3.3-41.5 14.5-65"/><path d="m71.1 95.9 1.9-1.4c11.4-8.3 34-13 46.7-.9"/><path d="m62.7 96.1c-15.2-9-28.8-13.4-37-4.1"/><path d="m37.6 65.8c10.1 2.8 18.3.5 30.4-5.9 16.4-8.7 36.2-13.3 45.4-7.7l2.9 1.7"/><path d="m26 60.8c1 .5 2 1.1 2.9 1.5"/><path d="m100.8 146.1c20.1-45.9 23.3-54.4 21.6-72.6-.9-9.4-5.1-18-9.5-26.3-2.8-5.2-5.9-10.5-7.5-16.3-2.6-9-1.8-20.1.3-29.6"/><path d="m60.7 41.2c0 .8 0 1.5-.1 2.1"/><path d="m.7 16.8h18.9l-7.9-7.9"/><path d="m19.6 17-7.9 7.9"/><path d="m139.7 13.3h-18.8l7.9-7.8"/><path d="m120.9 13.6 7.9 7.8"/></g><g fill="#612eff" fill-rule="nonzero" transform="translate(104 1)"><path d="m.8 27.4v.1z"/><path d="m1.7.3c0 .1 0 .1 0 0z"/></g></g></svg>

<?xml version="1.0" encoding="UTF-8"?>
<svg width="143px" height="149px" viewBox="0 0 143 149" version="1.1" xmlns="http://www.w3.org/2000/svg" xmlns:xlink="http://www.w3.org/1999/xlink">
    <!-- Generator: Sketch 51.2 (57519) - http://www.bohemiancoding.com/sketch -->
    <title>Fit_2</title>
    <desc>Created with Sketch.</desc>
    <defs></defs>
    <g id="Page-1" stroke="none" stroke-width="1" fill="none" fill-rule="evenodd">
        <g id="Fit_2" transform="translate(1.000000, 1.000000)">
            <path d="M121,94.8 C117.8,107.9 110.9,123 101.7,144.1 L101.3,146.4 L48,145.4 L46.1,145.2 C35.1,123 28.5,107 25.6,92.2 C23.6,81.7 23.5,71.8 25.1,60.8 C25.1,60.7 25.1,60.5 25.2,60.4 C29.1,34.4 37.8,29.9 37.9,0.4 C108.8,1.8 104.8,1.3 105.7,1.3 C105,3.5 102.4,17.3 104.8,28.3 L104.6,28.3 L104.9,28.4 C106.8,37.4 111.9,44.2 116.5,53.8 C123.5,68.7 124.5,80.5 121,94.8 Z" id="Shape" class="fill-neutral" fill-rule="nonzero"></path>
            <path d="M103.5,143.8 C103.4,144 103.4,144.1 103.4,144.3 C103.2,145.5 102.2,146.3 101,146.3 C93.8,146.1 87.7,146 82.6,145.9 C70.9,145.7 64,145.5 59.8,145.4 C55.2,145.3 51.1,142.5 49.2,138.3 C34.3,104.6 29.6,85.4 33,60.7 C35.4,42.9 39.9,35.1 42.6,22.7 C45.4,9.7 57.1,0.5 70.4,0.8 C91.8,1.2 100.5,1.3 104.2,1.3 C105.6,1.3 106.6,2.4 106.6,3.8 C106.6,3.9 106.6,4 106.6,4.1 C105.7,9.2 104.6,19.6 106.3,28.3 L106,28.3 L106.2,28.4 C108,37.4 112.6,44.2 116.8,53.8 C129.5,82.1 121.2,99.9 103.5,143.8 Z" id="Shape" class="fill-primary-100" fill-rule="nonzero"></path>
            <path d="M103.5,143.8 C103.4,144 103.4,144.1 103.4,144.3 C103.2,145.5 102.2,146.3 101,146.3 C100.9,146.3 100.9,146.3 100.8,146.3 C92.3,146.1 87,137 91,129.5 C101.4,110.3 114.3,83.8 105.1,51.4 C99.2,30.7 94.8,14.2 106.4,3.9 L106.5,3.9 C106.5,4 106.5,4.1 106.5,4.2 C105.6,9.3 104.5,19.7 106.2,28.4 L106,28.4 L106.2,28.5 C108,37.5 112.6,44.3 116.8,53.9 C129.5,82.1 121.2,99.9 103.5,143.8 Z" id="Shape" fill="#BAD8FF" fill-rule="nonzero"></path>
            <path d="M122.8,83 C122.8,83.2 122.8,83.4 122.8,83.6 C122.5,87.2 121.9,90.9 121,94.7 L119.7,93.5 C116.1,90.1 111.8,88 107.2,87 C95.3,84.3 81.3,88.4 73.1,94.4 L71.2,95.8 L69.7,100.3 L67.2,98.7 C50.2,87.9 34.7,81.7 25.8,91.9 L25.7,92 C23.7,81.5 23.6,71.6 25.2,60.6 C25.2,60.5 25.2,60.3 25.3,60.2 L26.2,60.6 C42.6,69.6 51.9,68.3 68.2,59.7 C80.4,53.2 94.6,49 104.8,49.6 C108.3,49.8 111.3,50.5 113.6,52 L116.5,53.7 C120.2,61.3 122.2,68.1 122.9,74.9 C123,75.4 123,76 123,76.5 C123,78.8 123,80.9 122.8,83 Z" id="Shape" class="fill-primary-400" fill-rule="nonzero"></path>
            <path d="M122.8,83 C122.8,83.2 122.8,83.4 122.8,83.6 C122.5,87.2 121.9,90.9 121,94.7 L119.7,93.5 C116.1,90.1 111.8,88 107.2,87 C109,76.1 108.8,64.2 105.2,51.3 C105,50.8 104.9,50.2 104.8,49.7 C108.3,49.9 111.3,50.6 113.6,52.1 L116.5,53.8 C120.2,61.4 122.2,68.2 122.9,75 C123,75.5 123,76.1 123,76.6 C123,78.8 123,80.9 122.8,83 Z" id="Shape" class="fill-primary-600" fill-rule="nonzero"></path>
            <path d="M37.6,9.7 C36.1,29.9 28.4,38.3 25.1,60.8 C21.2,87.1 27.2,107.1 46,145.2" id="Shape" class="stroke-primary" stroke-width="3" stroke-linecap="round" stroke-linejoin="round"></path>
            <path d="M37.9,0.7 C37.9,1.2 37.9,1.8 37.9,2.3" id="Shape" class="stroke-primary" stroke-width="3" stroke-linecap="round" stroke-linejoin="round"></path>
            <path d="M63.1,145.3 C64.4,119.3 66.4,103.8 77.6,80.3" id="Shape" class="stroke-primary" stroke-width="3" stroke-linecap="round" stroke-linejoin="round"></path>
            <path d="M71.1,95.9 L73,94.5 C84.4,86.2 107,81.5 119.7,93.6" id="Shape" class="stroke-primary" stroke-width="3" stroke-linecap="round" stroke-linejoin="round"></path>
            <path d="M62.7,96.1 C47.5,87.1 33.9,82.7 25.7,92" id="Shape" class="stroke-primary" stroke-width="3" stroke-linecap="round" stroke-linejoin="round"></path>
            <path d="M37.6,65.8 C47.7,68.6 55.9,66.3 68,59.9 C84.4,51.2 104.2,46.6 113.4,52.2 L116.3,53.9" id="Shape" class="stroke-primary" stroke-width="3" stroke-linecap="round" stroke-linejoin="round"></path>
            <path d="M26,60.8 C27,61.3 28,61.9 28.9,62.3" id="Shape" class="stroke-primary" stroke-width="3" stroke-linecap="round" stroke-linejoin="round"></path>
            <path d="M100.8,146.1 C120.9,100.2 124.1,91.7 122.4,73.5 C121.5,64.1 117.3,55.5 112.9,47.2 C110.1,42 107,36.7 105.4,30.9 C102.8,21.9 103.6,10.8 105.7,1.3" id="Shape" class="stroke-primary" stroke-width="3" stroke-linecap="round" stroke-linejoin="round"></path>
            <path d="M60.7,41.2 C60.7,42 60.7,42.7 60.6,43.3" id="Shape" class="stroke-primary" stroke-width="3" stroke-linecap="round" stroke-linejoin="round"></path>
            <polyline id="Shape" class="stroke-primary" stroke-width="3" stroke-linecap="round" stroke-linejoin="round" points="0.7 16.8 19.6 16.8 11.7 8.9"></polyline>
            <path d="M19.6,17 L11.7,24.9" id="Shape" class="stroke-primary" stroke-width="3" stroke-linecap="round" stroke-linejoin="round"></path>
            <polyline id="Shape" class="stroke-primary" stroke-width="3" stroke-linecap="round" stroke-linejoin="round" points="139.7 13.3 120.9 13.3 128.8 5.5"></polyline>
            <path d="M120.9,13.6 L128.8,21.4" id="Shape" class="stroke-primary" stroke-width="3" stroke-linecap="round" stroke-linejoin="round"></path>
            <g id="Group" transform="translate(104.000000, 1.000000)" fill="#612EFF" fill-rule="nonzero">
                <path d="M0.8,27.4 C0.8,27.4 0.8,27.5 0.8,27.5 L0.8,27.4 Z" id="Shape"></path>
                <path d="M1.7,0.3 C1.7,0.4 1.7,0.4 1.7,0.3 Z" id="Shape"></path>
            </g>
        </g>
    </g>
</svg>
